X: 15155
T: Gigue Des Sucres
R: jig
M: 6/8
K: Gmajor
|:G|"G"D2G D2G|DGA B3|"Am"cBc "D7"ABc|"G"e2d B2G|
"G"D2G D2G|DGA B3|"Am"cBc "D7"DEF|1 "G"GBA G2 :|2 "G"GBA G2||
|:d|"G"g3 "D"f3|"C"ece "G"d3|"Am"cBc "D7"ABc|"G"e2 d B2 d|
"G"g3 "D"f3|"C"ece "G"d3|"Am"cBc "D7"DEF|1 "G"GBA G2 :|2 "G"GBA G3||

